src/assets/rocket.svg

<svg width="133" height="150" viewBox="0 0 133 150" fill="none" xmlns="http://www.w3.org/2000/svg">
<circle cx="66.5" cy="73.5" r="66.5" fill="#922630"/>
<g clip-path="url(#clip0_403_568)">
<path d="M108.417 131.08C103.368 131.08 99.1446 134.606 98.0884 139.322C97.0989 138.399 95.7686 137.834 94.3061 137.834C93.0965 137.834 91.9768 138.221 91.0667 138.877C91.0931 138.62 91.1069 138.358 91.1069 138.093C91.1069 133.925 87.7172 130.545 83.5349 130.545C83.3158 130.545 83.0989 130.554 82.884 130.573V104.318L72.6822 92.9459L58.9309 110.98V125.577C58.7107 125.564 58.4885 125.556 58.2652 125.556C52.451 125.556 47.7374 130.255 47.7374 136.052C47.7374 136.23 47.7416 136.408 47.7511 136.585C47.0008 136.378 46.2103 136.266 45.3943 136.266C44.5784 136.266 43.7551 136.381 42.991 136.597C41.9877 131.764 37.6932 128.131 32.5468 128.131C26.6564 128.131 21.8814 132.891 21.8814 138.763C21.8814 139.153 21.9026 139.538 21.9438 139.916C21.1618 139.46 20.2506 139.197 19.2791 139.197C16.3635 139.197 14.0004 141.553 14.0004 144.459C14.0004 147.366 16.3635 149.722 19.2791 149.722H112.373V149.685C113.65 149.685 119 147.458 119 141.631C119 135.804 114.261 131.079 108.416 131.079L108.417 131.08Z" fill="#F4F4F4"/>
<path d="M65.3009 92.8363C57.4802 96.9816 56.0473 108.687 60.8593 116.75C62.1906 110.458 65.321 107.056 65.321 107.056C63.3431 120.628 69.7552 128.778 69.7552 128.778C82.0419 116.683 76.9325 102.257 76.9325 102.257C80.7201 107.905 79.9095 113.178 79.9095 113.178C88.6033 101.645 78.5633 93.0737 78.5633 93.0737C69.7552 91.1134 65.302 92.8363 65.302 92.8363H65.3009Z" fill="#E0E0E0"/>
<path d="M67.9746 91.9325C63.8801 95.0617 65.7321 100.266 65.7321 100.266C67.2676 96.5926 68.3333 95.622 68.3333 95.622C66.5924 102.358 70.7706 108.567 70.7706 108.567C77.8526 101.848 74.574 95.2822 74.574 95.2822C77.4145 96.5831 77.3467 100.325 77.3467 100.325C79.2929 95.6568 76.0683 92.135 76.0683 92.135C72.3834 91.6761 67.9756 91.9314 67.9756 91.9314L67.9746 91.9325Z" fill="#A9A9A9"/>
<path d="M71.4522 68.2454H56.5706C51.167 68.2454 46.5317 72.0878 45.5465 77.3841L42.0414 96.2177C41.9377 96.7769 42.5579 97.1873 43.0341 96.874L71.4532 78.187V68.2454H71.4522Z" fill="#888F9E"/>
<path d="M61.7699 79.0709C60.4831 73.1036 52.983 69.3772 52.983 69.3772C56.9886 82.2424 48.7054 89.6868 42.6182 93.1188L42.0414 96.2165C41.9377 96.7756 42.5579 97.186 43.0341 96.8727L62.5351 84.0497C62.3827 82.1496 62.0684 80.453 61.7699 79.0699V79.0709Z" fill="#0E1523"/>
<path d="M71.4517 68.2454H86.3333C91.7369 68.2454 96.3722 72.0878 97.3574 77.3841L100.862 96.2177C100.966 96.7769 100.346 97.1873 99.8698 96.874L71.4507 78.187V68.2454H71.4517Z" fill="#888F9E"/>
<path d="M99.8726 96.8743C100.349 97.1877 100.969 96.7773 100.865 96.2181L97.3603 77.3845C97.0745 75.8505 96.4829 74.4388 95.6543 73.2065C98.4175 87.0382 96.4343 92.8314 90.2846 88.8634C84.1349 84.8943 82.5993 80.9421 83.2131 76.378C80.6425 78.2275 78.908 80.2722 77.8529 82.396L99.8726 96.8743Z" fill="#0E1523"/>
<path d="M65.4327 91.7317H77.4739C84.1675 85.0586 94.999 63.7657 94.999 40.5178C95.0001 12.8419 71.4533 -6.10352e-05 71.4533 -6.10352e-05C71.4533 -6.10352e-05 47.9065 12.8419 47.9065 40.5189C47.9065 63.7668 58.3877 84.7104 65.4317 91.7328L65.4327 91.7317Z" fill="#7C7C7C"/>
<path d="M78.8242 78.7853C72.2681 86.6908 67.7048 88.8547 59.6936 83.9888C61.6757 87.3259 63.6621 89.9677 65.4316 91.7318H77.4727C84.1664 85.0586 94.9979 63.7657 94.9979 40.5178C95 12.8419 71.4532 -6.10352e-05 71.4532 -6.10352e-05C97.8659 18.5181 90.2907 64.4969 78.8242 78.7853Z" fill="#4F4F4F"/>
<path d="M71.6466 46.7025C79.0993 46.7025 85.1408 40.6795 85.1408 33.2497C85.1408 25.8199 79.0993 19.7968 71.6466 19.7968C64.194 19.7968 58.1525 25.8199 58.1525 33.2497C58.1525 40.6795 64.194 46.7025 71.6466 46.7025Z" fill="#0A111E"/>
<path d="M70.7911 46.1928C78.2438 46.1928 84.2853 40.1698 84.2853 32.74C84.2853 25.3102 78.2438 19.2871 70.7911 19.2871C63.3385 19.2871 57.297 25.3102 57.297 32.74C57.297 40.1698 63.3385 46.1928 70.7911 46.1928Z" fill="#4D7E9C"/>
<path d="M70.7922 22.3931C71.3293 22.3931 71.7647 21.959 71.7647 21.4235C71.7647 20.888 71.3293 20.4539 70.7922 20.4539C70.255 20.4539 69.8196 20.888 69.8196 21.4235C69.8196 21.959 70.255 22.3931 70.7922 22.3931Z" fill="#999694"/>
<path d="M71.6874 44.4251C71.8941 43.9308 71.6597 43.3631 71.1639 43.1571C70.6681 42.951 70.0987 43.1847 69.892 43.6789C69.6853 44.1732 69.9197 44.7409 70.4155 44.9469C70.9113 45.153 71.4807 44.9193 71.6874 44.4251Z" fill="#999694"/>
<path d="M59.4428 33.7094C59.98 33.7094 60.4154 33.2753 60.4154 32.7398C60.4154 32.2044 59.98 31.7703 59.4428 31.7703C58.9057 31.7703 58.4703 32.2044 58.4703 32.7398C58.4703 33.2753 58.9057 33.7094 59.4428 33.7094Z" fill="#999694"/>
<path d="M83.046 33.1113C83.2505 32.6161 83.0135 32.0495 82.5168 31.8457C82.0201 31.6419 81.4517 31.8781 81.2473 32.3733C81.0429 32.8685 81.2798 33.4351 81.7765 33.6389C82.2732 33.8427 82.8416 33.6065 83.046 33.1113Z" fill="#999694"/>
<path d="M63.453 24.0531C63.833 24.4318 63.833 25.0458 63.453 25.4246C63.0731 25.8034 62.4572 25.8034 62.0773 25.4246C61.6973 25.0458 61.6973 24.4318 62.0773 24.0531C62.4572 23.6743 63.0731 23.6743 63.453 24.0531Z" fill="#999694"/>
<path d="M79.5056 40.0557C79.1257 39.6769 78.5098 39.6769 78.1299 40.0557C77.7499 40.4344 77.7499 41.0485 78.1299 41.4272C78.5098 41.806 79.1257 41.806 79.5056 41.4272C79.8855 41.0485 79.8855 40.4344 79.5056 40.0557Z" fill="#999694"/>
<path d="M62.0793 40.0557C62.4592 39.6769 63.0751 39.6769 63.4551 40.0557C63.835 40.4344 63.835 41.0485 63.4551 41.4272C63.0751 41.806 62.4592 41.806 62.0793 41.4272C61.6994 41.0485 61.6994 40.4344 62.0793 40.0557Z" fill="#999694"/>
<path d="M78.1319 24.0531C77.7519 24.4318 77.7519 25.0458 78.1319 25.4246C78.5118 25.8034 79.1277 25.8034 79.5076 25.4246C79.8876 25.0458 79.8876 24.4318 79.5076 24.0531C79.1277 23.6743 78.5118 23.6743 78.1319 24.0531Z" fill="#999694"/>
<path d="M77.6168 39.3722C81.1405 35.8593 81.1405 30.1638 77.6168 26.651C74.0931 23.1381 68.3801 23.1381 64.8565 26.651C61.3328 30.1638 61.3328 35.8594 64.8565 39.3722C68.3801 42.8851 74.0931 42.8851 77.6168 39.3722Z" fill="#BFD1EB"/>
<path d="M62.2128 33.0125C62.2128 28.0443 66.2523 24.0172 71.2357 24.0172C72.8697 24.0172 74.4032 24.4508 75.725 25.2083C74.3069 24.2831 72.6126 23.745 70.7913 23.745C65.8078 23.745 61.7683 27.7721 61.7683 32.7403C61.7683 36.0785 63.5928 38.9925 66.302 40.5445C63.8394 38.9387 62.2118 36.165 62.2118 33.0125H62.2128Z" fill="#5D8DD4"/>
<g style="mix-blend-mode:screen">
<path d="M63.7665 35.5443C63.7665 30.1266 68.1721 25.7345 73.6064 25.7345C73.7133 25.7345 73.8191 25.7366 73.925 25.7398C73.0212 25.3747 72.0338 25.1732 70.9978 25.1732C66.6927 25.1732 63.2035 28.6517 63.2035 32.9436C63.2035 33.9754 63.4056 34.9609 63.7718 35.8619C63.7686 35.7564 63.7665 35.6509 63.7665 35.5443Z" fill="#8EB2E5"/>
</g>
<path d="M78.563 93.0739H64.3418C63.5978 93.0739 62.9956 92.4726 62.9956 91.7319C62.9956 90.9902 63.5978 90.3899 64.3418 90.3899H78.563C79.307 90.3899 79.9091 90.9902 79.9091 91.7319C79.9091 92.4736 79.3059 93.0739 78.563 93.0739Z" fill="#62656B"/>
<path d="M78.5626 90.3899H78.3329C78.5488 90.6283 78.6801 90.9438 78.6801 91.2898C78.6801 92.0315 78.0779 92.6319 77.3339 92.6319H63.3434C63.59 92.903 63.9456 93.0739 64.3424 93.0739H78.5636C79.3076 93.0739 79.9098 92.4726 79.9098 91.7319C79.9098 90.9902 79.3066 90.3899 78.5636 90.3899H78.5626Z" fill="#7C7C7C"/>
</g>
<defs>
<clipPath id="clip0_403_568">
<rect width="105.001" height="149.723" fill="white" transform="translate(14)"/>
</clipPath>
</defs>
</svg>

<svg width="133" height="150" fill="none" xmlns="http://www.w3.org/2000/svg"><circle cx="66.5" cy="73.5" r="66.5" fill="#922630"/><g clip-path="url(#a)"><path d="M108.417 131.08a10.58 10.58 0 0 0-10.329 8.242 5.527 5.527 0 0 0-3.782-1.488c-1.21 0-2.33.387-3.24 1.043.027-.257.04-.519.04-.784 0-4.168-3.389-7.548-7.571-7.548-.22 0-.436.009-.651.028v-26.255L72.682 92.946 58.931 110.98v14.597c-.22-.013-.442-.021-.666-.021-5.814 0-10.528 4.699-10.528 10.496 0 .178.005.356.014.533a8.852 8.852 0 0 0-4.76.012 10.66 10.66 0 0 0-10.444-8.466c-5.89 0-10.666 4.76-10.666 10.632 0 .39.022.775.063 1.153a5.276 5.276 0 0 0-2.665-.719c-2.916 0-5.279 2.356-5.279 5.262 0 2.907 2.363 5.263 5.28 5.263h93.093v-.037c1.277 0 6.627-2.227 6.627-8.054s-4.739-10.552-10.584-10.552l.001.001Z" fill="#F4F4F4"/><path d="M65.3 92.836c-7.82 4.146-9.253 15.851-4.44 23.914 1.33-6.292 4.461-9.694 4.461-9.694-1.978 13.572 4.434 21.722 4.434 21.722 12.287-12.095 7.178-26.521 7.178-26.521 3.787 5.648 2.976 10.921 2.976 10.921 8.694-11.533-1.346-20.104-1.346-20.104-8.808-1.96-13.261-.238-13.261-.238h-.001Z" fill="#E0E0E0"/><path d="M67.975 91.933c-4.095 3.129-2.243 8.333-2.243 8.333 1.536-3.673 2.601-4.644 2.601-4.644-1.74 6.736 2.438 12.945 2.438 12.945 7.082-6.719 3.803-13.285 3.803-13.285 2.84 1.301 2.773 5.043 2.773 5.043 1.946-4.668-1.279-8.19-1.279-8.19-3.685-.459-8.092-.204-8.092-.204l-.001.002Z" fill="#A9A9A9"/><path d="M71.452 68.245H56.571c-5.404 0-10.04 3.843-11.024 9.14L42.04 96.217c-.103.559.517.97.993.656l28.42-18.687v-9.942h-.002Z" fill="#888F9E"/><path d="M61.77 79.07c-1.287-5.966-8.787-9.693-8.787-9.693 4.006 12.865-4.278 20.31-10.365 23.742l-.577 3.097c-.103.56.517.97.993.657L62.535 84.05c-.152-1.9-.467-3.597-.765-4.98Z" fill="#0E1523"/><path d="M71.452 68.245h14.881c5.404 0 10.04 3.843 11.024 9.14l3.505 18.833a.647.647 0 0 1-.992.656L71.45 78.187v-9.942h.002Z" fill="#888F9E"/><path d="M99.873 96.874a.647.647 0 0 0 .992-.656L97.36 77.384a11.124 11.124 0 0 0-1.706-4.177c2.764 13.831.78 19.624-5.37 15.656-6.15-3.969-7.685-7.92-7.07-12.485-2.572 1.85-4.306 3.894-5.361 6.018l22.02 14.478Z" fill="#0E1523"/><path d="M65.433 91.732h12.04C84.169 85.059 95 63.766 95 40.518 95 12.842 71.453 0 71.453 0S47.906 12.842 47.906 40.519c0 23.248 10.482 44.191 17.526 51.214v-.001Z" fill="#7C7C7C"/><path d="M78.824 78.785c-6.556 7.906-11.12 10.07-19.13 5.204 1.982 3.337 3.968 5.979 5.738 7.743h12.04c6.694-6.673 17.526-27.966 17.526-51.214C95 12.842 71.453 0 71.453 0c26.413 18.518 18.838 64.497 7.371 78.785Z" fill="#4F4F4F"/><path d="M71.647 46.703c7.452 0 13.494-6.024 13.494-13.453 0-7.43-6.042-13.453-13.494-13.453-7.453 0-13.495 6.023-13.495 13.453s6.042 13.453 13.495 13.453Z" fill="#0A111E"/><path d="M70.791 46.193c7.453 0 13.494-6.023 13.494-13.453s-6.041-13.453-13.494-13.453c-7.452 0-13.494 6.023-13.494 13.453s6.042 13.453 13.494 13.453Z" fill="#4D7E9C"/><path d="M70.792 22.393a.971.971 0 0 0 .973-.97.971.971 0 0 0-.973-.97.971.971 0 0 0-.972.97c0 .536.435.97.972.97ZM71.687 44.425a.968.968 0 0 0-.523-1.268.974.974 0 0 0-1.272.522.968.968 0 0 0 .523 1.268.974.974 0 0 0 1.272-.522ZM59.443 33.71a.971.971 0 0 0 .972-.97.971.971 0 0 0-.972-.97.971.971 0 0 0-.973.97c0 .535.436.97.973.97ZM83.046 33.111a.968.968 0 0 0-.53-1.265.974.974 0 0 0-1.269.527.969.969 0 0 0 .53 1.266.974.974 0 0 0 1.269-.528ZM63.453 24.053c.38.379.38.993 0 1.372a.975.975 0 0 1-1.376 0 .968.968 0 0 1 0-1.372.975.975 0 0 1 1.376 0ZM79.506 40.056a.975.975 0 0 0-1.376 0 .968.968 0 0 0 0 1.371.975.975 0 0 0 1.376 0 .968.968 0 0 0 0-1.371ZM62.08 40.056a.975.975 0 0 1 1.375 0c.38.378.38.992 0 1.371a.975.975 0 0 1-1.376 0 .968.968 0 0 1 0-1.371ZM78.132 24.053a.968.968 0 0 0 0 1.372.975.975 0 0 0 1.376 0 .968.968 0 0 0 0-1.372.975.975 0 0 0-1.376 0Z" fill="#999694"/><path d="M77.617 39.372a8.976 8.976 0 0 0 0-12.721c-3.524-3.513-9.237-3.513-12.76 0a8.976 8.976 0 0 0 0 12.721c3.523 3.513 9.236 3.513 12.76 0Z" fill="#BFD1EB"/><path d="M62.213 33.013c0-4.969 4.04-8.996 9.023-8.996 1.634 0 3.167.434 4.489 1.191a8.998 8.998 0 0 0-4.934-1.463c-4.983 0-9.023 4.027-9.023 8.995a8.987 8.987 0 0 0 4.534 7.804 8.98 8.98 0 0 1-4.09-7.531Z" fill="#5D8DD4"/><path d="M63.767 35.544c0-5.417 4.405-9.81 9.84-9.81.106 0 .212.003.318.006a7.795 7.795 0 0 0-2.927-.567c-4.305 0-7.795 3.479-7.795 7.77 0 1.032.203 2.018.569 2.919a10.452 10.452 0 0 1-.005-.318Z" fill="#8EB2E5" style="mix-blend-mode:screen"/><path d="M78.563 93.074H64.342a1.344 1.344 0 0 1-1.346-1.342c0-.742.602-1.342 1.346-1.342h14.221c.744 0 1.346.6 1.346 1.342 0 .742-.603 1.342-1.346 1.342Z" fill="#62656B"/><path d="M78.563 90.39h-.23a1.344 1.344 0 0 1-.999 2.242h-13.99c.246.271.602.442.998.442h14.222c.744 0 1.346-.601 1.346-1.342 0-.742-.603-1.342-1.346-1.342h-.001Z" fill="#7C7C7C"/></g><defs><clipPath id="a"><path fill="#fff" transform="translate(14)" d="M0 0h105.001v149.723H0z"/></clipPath></defs></svg>
